packages/core/src/svgs/wallets/branded/venly.svg

<svg width="24" height="24" viewBox="0 0 24 24" fill="none" xmlns="http://www.w3.org/2000/svg">
<path d="M21.8055 8.89537L19.3524 9.80398C19.2493 9.84058 19.1493 9.74299 19.193 9.64238L21.9274 3.16929C21.968 3.07172 21.8712 2.9711 21.7712 3.00769L16.5742 4.78223C16.4742 4.81577 16.393 4.89199 16.3524 4.98956L12.8304 13.6579C12.7867 13.7677 12.896 13.8775 13.0085 13.8379L15.2086 13.0512C15.3305 13.0085 15.443 13.1366 15.3773 13.2494L12.146 18.6004C12.0773 18.7163 11.9023 18.7163 11.8335 18.6004L8.60225 13.2463C8.53661 13.1366 8.646 13.0055 8.771 13.0482L10.971 13.8348C11.0835 13.8744 11.1929 13.7647 11.1491 13.6549L7.62411 4.98956C7.58347 4.89199 7.50536 4.81881 7.40222 4.78223L2.21152 3.00769C2.1084 2.97415 2.01465 3.07172 2.05527 3.16929L4.78656 9.64238C4.82719 9.73996 4.72719 9.84058 4.62718 9.80398L2.18965 8.89537C2.06465 8.84965 1.95215 8.98073 2.0209 9.09354L9.27725 20.814C9.34911 20.9299 9.47725 21 9.6179 21H14.3742C14.5117 21 14.643 20.9299 14.7148 20.814L21.9837 9.09354C22.043 8.98073 21.9305 8.84965 21.8055 8.89537Z" fill="url(#paint0_linear_134_479)"/>
<defs>
<linearGradient id="paint0_linear_134_479" x1="10.0718" y1="3" x2="23.0522" y2="6.62185" gradientUnits="userSpaceOnUse">
<stop stop-color="#7735E8"/>
<stop offset="1" stop-color="#C62CF1"/>
</linearGradient>
</defs>
</svg>

<svg xmlns="http://www.w3.org/2000/svg" width="24" height="24" fill="none" viewBox="0 0 24 24">
    <path fill="url(#venly__a)" d="m21.806 8.895-2.454.909c-.103.037-.203-.061-.159-.162l2.734-6.473a.123.123 0 0 0-.156-.161l-5.197 1.774a.37.37 0 0 0-.222.208l-3.522 8.668c-.043.11.066.22.178.18l2.2-.787c.123-.043.235.086.17.198L12.145 18.6a.184.184 0 0 1-.312 0l-3.232-5.354c-.065-.11.044-.24.169-.198l2.2.787c.113.04.222-.07.178-.18L7.624 4.99a.37.37 0 0 0-.222-.208l-5.19-1.774c-.104-.034-.197.064-.157.161l2.732 6.473c.04.098-.06.199-.16.162L2.19 8.895c-.125-.045-.238.086-.17.199l7.257 11.72c.072.116.2.186.34.186h4.757c.138 0 .269-.07.34-.186l7.27-11.72c.059-.113-.054-.244-.179-.199"/>
    <defs>
        <linearGradient id="venly__a" x1="10.072" x2="23.052" y1="3" y2="6.622" gradientUnits="userSpaceOnUse">
            <stop stop-color="#7735E8"/>
            <stop offset="1" stop-color="#C62CF1"/>
        </linearGradient>
    </defs>
</svg>
